!!!SOCIAL_FUNCTION:	ceremonial songs
!!!PDT:	1909
!!!OTL: No_39.krn
!!!REG: Great_Lakes
!!!LANG: Non-Tone
!!!LING_GROUP: Algonquin
**kern
*staff1
=1-
*clefF4
*k[b-]
*M3/4
4c\
4c\
4c\
=2
2c\
8c\L
8c\J
=3
4c\
4c\
(8c\L
8A\J)
=4
2.c\
=5
2.c\
=6
4A\
4A\
4c\
=7
2A\
8F\L
8F\J
=8
4F\
4F\
(8F\L
8A\J)
=9
2.G\
=10
2.G\
=11
4A\
4A\
4A\
=12
2F\
8F\L
8F\J
=13
4F\
4F\
(8F\L
8D\J)
=14
2.F\
=15
2.F\
=16
4A\
4A\
4A\
=17
2F\
8F\L
8F\J
=18
4D\
4D\
(8D/L
8C/J)
=19
2.D\
=20
2.D\
=21
4F\
4F\
4F\
=22
2C/
8C/L
8BBn/J
=23
4C/
4C/
(8C/L
8AA/J)
=24
2.C/
=25
2.C/
=26
4AA/
4AA/
4C/
=27
2AA/
8AA/L
8FF/J
=28
4FF/
4FF/
4AA/
=29
2.FF/
=30
2.FF/
==
*-
